assets/sonr-icons/thumb-up.svg

<svg xmlns="http://www.w3.org/2000/svg" width="24" height="24" fill="none" viewBox="0 0 24 24"><path fill="#000" d="M3 13C3 11.343 4.343 10 6 10H9V21H6C4.343 21 3 19.657 3 18V13ZM6 12C5.448 12 5 12.448 5 13V18C5 18.552 5.448 19 6 19H7V12H6Z"/><path fill="#000" d="M10.848 4.22703C11.569 3.01003 13.155 2.63203 14.347 3.39503L14.676 3.60503C15.544 4.16003 15.982 5.19103 15.78 6.20103L15.221 9.00003H18.002C19.839 9.00003 21.246 10.637 20.967 12.454L20.049 18.454C19.825 19.919 18.566 21 17.084 21H7.00098V11.548C7.00098 11.01 7.14598 10.482 7.41898 10.019L10.849 4.22703H10.848ZM13.269 5.07903C13.03 4.92703 12.713 5.00203 12.569 5.24603L9.13898 11.038C9.04798 11.192 8.99998 11.368 8.99998 11.547V18.999H17.083C17.577 18.999 17.996 18.638 18.072 18.15L18.99 12.15C19.083 11.545 18.614 10.999 18.001 10.999H14.61C13.663 10.999 12.953 10.133 13.139 9.20503L13.819 5.80803C13.859 5.60603 13.772 5.40003 13.598 5.28903L13.27 5.07903H13.269Z"/></svg>

<svg xmlns="http://www.w3.org/2000/svg" width="24" height="24" fill="none"><path fill="currentColor" d="M3 13a3 3 0 0 1 3-3h3v11H6a3 3 0 0 1-3-3zm3-1a1 1 0 0 0-1 1v5a1 1 0 0 0 1 1h1v-7z"/><path fill="currentColor" d="M10.848 4.227a2.5 2.5 0 0 1 3.499-.832l.329.21a2.5 2.5 0 0 1 1.104 2.596L15.221 9h2.781a3 3 0 0 1 2.965 3.454l-.918 6A3 3 0 0 1 17.084 21H7.001v-9.452c0-.538.145-1.066.418-1.529zm2.421.852a.5.5 0 0 0-.7.167l-3.43 5.792c-.091.154-.139.33-.139.509v7.452h8.083c.494 0 .913-.361.989-.849l.918-6a1 1 0 0 0-.989-1.151H14.61a1.5 1.5 0 0 1-1.471-1.794l.68-3.397a.5.5 0 0 0-.221-.519z"/></svg>
